packages/flutter/assets/icons/safe.svg

<?xml version="1.0" encoding="UTF-8"?>
<svg width="24px" height="24px" viewBox="0 0 24 24" version="1.1" xmlns="http://www.w3.org/2000/svg" xmlns:xlink="http://www.w3.org/1999/xlink">
    <title>safe</title>
    <g id="safe" stroke="none" stroke-width="1" fill="none" fill-rule="evenodd">
        <path d="M20,2.5 C20.2454599,2.5 20.4496084,2.67687516 20.4919443,2.91012437 L20.5,3 L20.5,19 C20.5,19.2454599 20.3231248,19.4496084 20.0898756,19.4919443 L20,19.5 L18.5,19.5 L18.5,21 C18.5,21.2454599 18.3231248,21.4496084 18.0898756,21.4919443 L18,21.5 L16,21.5 C15.7238576,21.5 15.5,21.2761424 15.5,21 L15.5,21 L15.5,19.5 L8.5,19.5 L8.5,21 C8.5,21.2454599 8.32312484,21.4496084 8.08987563,21.4919443 L8,21.5 L6,21.5 C5.72385763,21.5 5.5,21.2761424 5.5,21 L5.5,21 L5.5,19.5 L4,19.5 C3.75454011,19.5 3.55039163,19.3231248 3.50805567,19.0898756 L3.5,19 L3.5,17.018049 C3.5,16.7419066 3.72385763,16.518049 4,16.518049 C4.24545989,16.518049 4.44960837,16.6949242 4.49194433,16.9281734 L4.5,17.018049 L4.5,18.5 L19.5,18.5 L19.5,3.5 L4.5,3.5 L4.5,4.99712319 C4.5,5.24258308 4.32312484,5.44673156 4.08987563,5.48906752 L4,5.49712319 C3.75454011,5.49712319 3.55039163,5.32024803 3.50805567,5.08699882 L3.5,4.99712319 L3.5,3 C3.5,2.75454011 3.67687516,2.55039163 3.91012437,2.50805567 L4,2.5 L20,2.5 Z M7.5,19.5 L6.5,19.5 L6.5,20.5 L7.5,20.5 L7.5,19.5 Z M17.5,19.5 L16.5,19.5 L16.5,20.5 L17.5,20.5 L17.5,19.5 Z M4,7.51206373 C4.24545989,7.51206373 4.44960837,7.68893889 4.49194433,7.9221881 L4.5,8.01206373 L4.5,14.0031007 C4.5,14.2792431 4.27614237,14.5031007 4,14.5031007 C3.75454011,14.5031007 3.55039163,14.3262255 3.50805567,14.0929763 L3.5,14.0031007 L3.5,8.01206373 C3.5,7.73592136 3.72385763,7.51206373 4,7.51206373 Z M17,5.5 L7,5.5 C6.72385763,5.5 6.5,5.72385763 6.5,6 L6.5,16 C6.5,16.2761424 6.72385763,16.5 7,16.5 L17,16.5 C17.2761424,16.5 17.5,16.2761424 17.5,16 L17.5,6 C17.5,5.72385763 17.2761424,5.5 17,5.5 Z M16.5,6.5 L16.5,15.5 L7.5,15.5 L7.5,6.5 L16.5,6.5 Z M5.5,6 C5.77614237,6 6,6.22385763 6,6.5 C6,6.74545989 5.82312484,6.94960837 5.58987563,6.99194433 L5.5,7 L2.5,7 C2.22385763,7 2,6.77614237 2,6.5 C2,6.25454011 2.17687516,6.05039163 2.41012437,6.00805567 L2.5,6 L5.5,6 Z M5.5,15 C5.77614237,15 6,15.2238576 6,15.5 C6,15.7454599 5.82312484,15.9496084 5.58987563,15.9919443 L5.5,16 L2.5,16 C2.22385763,16 2,15.7761424 2,15.5 C2,15.2545401 2.17687516,15.0503916 2.41012437,15.0080557 L2.5,15 L5.5,15 Z M13,9 C14.1045695,9 15,9.8954305 15,11 C15,12.1045695 14.1045695,13 13,13 C11.8954305,13 11,12.1045695 11,11 C11,9.8954305 11.8954305,9 13,9 Z M13,10 C12.4477153,10 12,10.4477153 12,11 C12,11.5522847 12.4477153,12 13,12 C13.5522847,12 14,11.5522847 14,11 C14,10.4477153 13.5522847,10 13,10 Z" id="Shape" fill="#303846"></path>
    </g>
</svg>

<svg xmlns="http://www.w3.org/2000/svg" width="24" height="24" viewBox="0 0 24 24"><path fill-rule="evenodd" d="M20 2.5a.5.5 0 0 1 .492.41L20.5 3v16a.5.5 0 0 1-.41.492L20 19.5h-1.5V21a.5.5 0 0 1-.41.492L18 21.5h-2a.5.5 0 0 1-.5-.5v-1.5h-7V21a.5.5 0 0 1-.41.492L8 21.5H6a.5.5 0 0 1-.5-.5v-1.5H4a.5.5 0 0 1-.492-.41L3.5 19v-1.982a.5.5 0 0 1 .992-.09l.008.09V18.5h15v-15h-15v1.497a.5.5 0 0 1-.41.492L4 5.497a.5.5 0 0 1-.492-.41l-.008-.09V3a.5.5 0 0 1 .41-.492L4 2.5h16zm-12.5 17h-1v1h1v-1zm10 0h-1v1h1v-1zM4 7.512a.5.5 0 0 1 .492.41l.008.09v5.991a.5.5 0 0 1-.992.09l-.008-.09v-5.99a.5.5 0 0 1 .5-.5zM17 5.5H7a.5.5 0 0 0-.5.5v10a.5.5 0 0 0 .5.5h10a.5.5 0 0 0 .5-.5V6a.5.5 0 0 0-.5-.5zm-.5 1v9h-9v-9h9zM5.5 6a.5.5 0 0 1 .09.992L5.5 7h-3a.5.5 0 0 1-.09-.992L2.5 6h3zm0 9a.5.5 0 0 1 .09.992L5.5 16h-3a.5.5 0 0 1-.09-.992L2.5 15h3zM13 9a2 2 0 1 1 0 4 2 2 0 0 1 0-4zm0 1a1 1 0 1 0 0 2 1 1 0 0 0 0-2z"/></svg>
